public/assets/footer/discord-light.svg

<svg fill="none" height="36" viewBox="0 0 37 36" width="37" xmlns="http://www.w3.org/2000/svg"><path d="m27.4155 9.32755c-1.6275-.7467-3.3728-1.29685-5.1976-1.61193-.0332-.00608-.0664.00911-.0835.03951-.2245.39917-.4731.91994-.6472 1.32925-1.9627-.29381-3.9153-.29381-5.8377 0-.1741-.41841-.4318-.93008-.6572-1.32925-.0172-.02938-.0504-.04458-.0836-.03951-1.8238.31408-3.569.86422-5.19753 1.61193-.0141.00608-.02619.01622-.03421.02938-3.31038 4.94527-4.21724 9.76887-3.77236 14.53277.00201.0233.01509.0456.03321.0598 2.1841 1.6038 4.29979 2.5775 6.37619 3.2228.0332.0102.0684-.002.0896-.0294.4911-.6706.929-1.3778 1.3044-2.1215.0221-.0436.001-.0952-.0443-.1125-.6945-.2634-1.3558-.5846-1.9919-.9493-.0503-.0294-.0543-.1013-.008-.1358.1338-.1003.2677-.2046.3955-.31.0232-.0192.0554-.0233.0826-.0111 4.1789 1.9078 8.7031 1.9078 12.8328 0 .0272-.0132.0594-.0091.0835.0101.1279.1054.2617.2107.3966.311.0463.0345.0433.1064-.007.1358-.6361.3718-1.2974.6859-1.9929.9483-.0453.0173-.0654.0699-.0433.1135.3835.7426.8213 1.4498 1.3034 2.1205.0202.0284.0564.0406.0896.0304 2.0865-.6453 4.2021-1.619 6.3862-3.2228.0192-.0142.0312-.0355.0333-.0588.5324-5.5075-.8918-10.2917-3.7754-14.53276-.0071-.01417-.0191-.02431-.0332-.03039zm-13.0835 11.66145c-1.2581 0-2.2948-1.155-2.2948-2.5734s1.0166-2.5734 2.2948-2.5734c1.2883 0 2.315 1.1651 2.2948 2.5734 0 1.4184-1.0166 2.5734-2.2948 2.5734zm8.4848 0c-1.2581 0-2.2948-1.155-2.2948-2.5734s1.0165-2.5734 2.2948-2.5734c1.2883 0 2.3149 1.1651 2.2948 2.5734 0 1.4184-1.0065 2.5734-2.2948 2.5734z" stroke="#1e1e1e" stroke-width="1.286"/></svg>

<svg xmlns="http://www.w3.org/2000/svg" width="37" height="36" fill="none" viewBox="0 0 37 36"><path stroke="#1E1E1E" stroke-width="1.286" d="M27.4155 9.32755C25.788 8.58085 24.0427 8.0307 22.2179 7.71562C22.1847 7.70954 22.1515 7.72473 22.1344 7.75513C21.9099 8.1543 21.6613 8.67507 21.4872 9.08438C19.5245 8.79057 17.5719 8.79057 15.6495 9.08438C15.4754 8.66597 15.2177 8.1543 14.9923 7.75513C14.9751 7.72575 14.9419 7.71055 14.9087 7.71562C13.0849 8.0297 11.3397 8.57984 9.71117 9.32755C9.69707 9.33363 9.68498 9.34377 9.67696 9.35693C6.36658 14.3022 5.45972 19.1258 5.9046 23.8897C5.90661 23.913 5.91969 23.9353 5.93781 23.9495C8.12191 25.5533 10.2376 26.527 12.314 27.1723C12.3472 27.1825 12.3824 27.1703 12.4036 27.1429C12.8947 26.4723 13.3326 25.7651 13.708 25.0214C13.7301 24.9778 13.709 24.9262 13.6637 24.9089C12.9692 24.6455 12.3079 24.3243 11.6718 23.9596C11.6215 23.9302 11.6175 23.8583 11.6638 23.8238C11.7976 23.7235 11.9315 23.6192 12.0593 23.5138C12.0825 23.4946 12.1147 23.4905 12.1419 23.5027C16.3208 25.4105 20.845 25.4105 24.9747 23.5027C25.0019 23.4895 25.0341 23.4936 25.0582 23.5128C25.1861 23.6182 25.3199 23.7235 25.4548 23.8238C25.5011 23.8583 25.4981 23.9302 25.4478 23.9596C24.8117 24.3314 24.1504 24.6455 23.4549 24.9079C23.4096 24.9252 23.3895 24.9778 23.4116 25.0214C23.7951 25.764 24.2329 26.4712 24.715 27.1419C24.7352 27.1703 24.7714 27.1825 24.8046 27.1723C26.8911 26.527 29.0067 25.5533 31.1908 23.9495C31.21 23.9353 31.222 23.914 31.2241 23.8907C31.7565 18.3832 30.3323 13.599 27.4487 9.35794C27.4416 9.34377 27.4296 9.33363 27.4155 9.32755ZM14.332 20.989C13.0739 20.989 12.0372 19.834 12.0372 18.4156C12.0372 16.9972 13.0538 15.8422 14.332 15.8422C15.6203 15.8422 16.647 17.0073 16.6268 18.4156C16.6268 19.834 15.6102 20.989 14.332 20.989ZM22.8168 20.989C21.5587 20.989 20.522 19.834 20.522 18.4156C20.522 16.9972 21.5385 15.8422 22.8168 15.8422C24.1051 15.8422 25.1317 17.0073 25.1116 18.4156C25.1116 19.834 24.1051 20.989 22.8168 20.989Z"/></svg>
